X: 159
T: Yuekan yue xihuan
%%abc-version 2.0
%%abcx-abcm2ps-target-version 5.9.1 (29 Sep 2008)
%%abc-creator hum2abc beta
%%abcx-conversion-date 2013/10/02 07:44:27
%%abc-edited-by Helmut Schaffrath
%%humdrum-veritas 2062291245
%%humdrum-veritas-data 4255294623
%%continueall 1
%%barnumbers 0
L: 1/16
M: 2/4
K: C
E2 G2 E2 G A [I:setbarnb 1]| 
c2 c e A c A G | 
G4G2 D E | 
G2> A2 G A c2 | 
E2 G2 E2 G A | 
c2 c e A c A G | 
G4G2 D E | 
G2> A2G4 | 
G2 G2 A c c d | 
C2> D2 C2 A,2 | 
C2> D2 E D G E | 
D2> E2D4 | 
D2 G E D2 E G | 
G2 G c A c A G | 
G2 G c E2 D2 | 
C4E2 D G | 
G2 A,2G,4 | 
E2 G A G2 E D | 
C2> D2 E2 G A | 
c6e2 | 
G8 | 
E2 D EG4 | 
A,2 C2 E2 D2 | 
C8 |]  



